svg/swap_horizontal_circle.svg

<svg xmlns="http://www.w3.org/2000/svg" viewBox="0 0 24 24"><path d="M22 12c0-5.5-4.5-10-10-10S2 6.5 2 12s4.5 10 10 10 10-4.5 10-10m-7-5.5 3.5 3.5-3.5 3.5V11h-4V9h4zm-6 11L5.5 14 9 10.5V13h4v2H9z"/></svg>

<?xml version="1.0" encoding="UTF-8"?><!DOCTYPE svg PUBLIC "-//W3C//DTD SVG 1.1//EN" "http://www.w3.org/Graphics/SVG/1.1/DTD/svg11.dtd"><svg xmlns="http://www.w3.org/2000/svg" xmlns:xlink="http://www.w3.org/1999/xlink" version="1.1" id="mdi-swap-horizontal-circle" width="24" height="24" viewBox="0 0 24 24"><path d="M22 12C22 6.5 17.5 2 12 2S2 6.5 2 12 6.5 22 12 22 22 17.5 22 12M15 6.5L18.5 10L15 13.5V11H11V9H15V6.5M9 17.5L5.5 14L9 10.5V13H13V15H9V17.5Z" /></svg>
